X: 129
T: No_86_Song_for_Owner_of_Drum_(a).krn
N: Derived from No_86_Song_for_Owner_of_Drum_(a).krn
%%abc-version 2.0
%%abcx-abcm2ps-target-version 5.9.1 (29 Sep 2008)
%%abc-creator hum2abc beta
%%abcx-conversion-date 2019/03/15 08:35:45
%%humdrum-veritas 2557039749
%%humdrum-veritas-data 655602366
%%linebreak <none>
%%barnumbers 0
L: 1/8
M: 3/4
K: Bb clef=bass
[K:clef=bass][M:3/4]D2DD C3/B,/ ||  
[M:2/4]B,3/B,/ B,F,/ z/ ||  
[M:3/4]D2DD C3/B,/ | 
B,3/B,/ B, zz2 | 
C2C3/B,/ B,3/B,/ [I:setbarnb 6]||  
[M:2/4]F,2E,2 | 
C,3/C,/ C,/C,/ z ||  
[M:3/4]E,2E,E, C,/C,C,/ ||  
[M:2/4]B,,B,,B,,2- | 
B,,2B,, z :|]  



